svg/php.svg

<svg viewBox="0 0 20 20" xmlns="http://www.w3.org/2000/svg">
<rect width="100%" height="100%" fill="#5C669A"/>
<path d="M3.05693 7.48484H5.50324C6.22329 7.48484 6.744 7.6902 7.06537 8.10093C7.38673 8.51165 7.49328 9.06587 7.38501 9.76359C7.34016 10.0917 7.24449 10.4109 7.10146 10.7096C6.9598 11.0219 6.76139 11.3051 6.5163 11.5448C6.25472 11.8343 5.91568 12.0427 5.53933 12.1455C5.18656 12.2308 4.82477 12.2733 4.46182 12.2718H3.36626L3.02084 13.9989H1.75L3.05693 7.48484V7.48484ZM4.12413 8.51595L3.57764 11.2458C3.61368 11.2483 3.64986 11.2483 3.68591 11.2458H3.8148C4.30799 11.264 4.80103 11.2058 5.27639 11.0731C5.66564 10.9468 5.92599 10.5034 6.04972 9.74812C6.16057 9.11141 6.04972 8.74537 5.72235 8.64742C5.32643 8.54311 4.91742 8.49708 4.50822 8.51079C4.43781 8.51446 4.36725 8.51446 4.29684 8.51079H4.10608L4.12413 8.51595ZM8.83114 5.75H10.0865L9.73078 7.48484H10.8598C11.3521 7.45801 11.8397 7.59191 12.2493 7.86635C12.5586 8.10866 12.6514 8.5675 12.5225 9.24804L11.9167 12.2769H10.6278L11.213 9.38724C11.2479 9.28161 11.2609 9.16998 11.2511 9.05916C11.2414 8.94835 11.2091 8.8407 11.1563 8.74279C11.0719 8.66675 10.9718 8.61024 10.8631 8.57727C10.7544 8.5443 10.6397 8.53569 10.5273 8.55204H9.51425L8.77443 12.2769H7.50874L8.82341 5.75516L8.83114 5.75ZM13.881 7.48484H16.3273C17.0474 7.48484 17.5681 7.6902 17.8894 8.10093C18.2108 8.51165 18.3173 9.06587 18.2091 9.76359C18.1642 10.0917 18.0686 10.4109 17.9255 10.7096C17.7839 11.0219 17.5855 11.3051 17.3404 11.5448C17.0788 11.8343 16.7397 12.0427 16.3634 12.1455C16.0106 12.2308 15.6488 12.2733 15.2859 12.2718H14.1903L13.8449 13.9989H12.5741L13.881 7.48484V7.48484ZM14.9482 8.51595L14.4017 11.2458C14.4378 11.2483 14.4739 11.2483 14.51 11.2458H14.6389C15.1321 11.264 15.6251 11.2058 16.1005 11.0731C16.4897 10.9468 16.7501 10.5034 16.8738 9.74812C16.9846 9.11141 16.8738 8.74537 16.5464 8.64742C16.1506 8.54278 15.7415 8.49675 15.3323 8.51079C15.2619 8.51446 15.1913 8.51446 15.1209 8.51079H14.9301" fill="white"/>
</svg>

<svg xmlns="http://www.w3.org/2000/svg" viewBox="0 0 20 20">
  <rect width="100%" height="100%" fill="#5C669A"/>
  <path fill="#fff" d="M3.06 7.48H5.5c.72 0 1.24.21 1.57.62.32.41.42.97.32 1.66a3.2 3.2 0 0 1-.87 1.78c-.27.3-.6.5-.98.6a4.5 4.5 0 0 1-1.08.13h-1.1L3.03 14H1.75l1.3-6.52Zm1.06 1.04-.54 2.73h.23c.5.01 1-.04 1.47-.18.39-.12.65-.57.77-1.32.11-.64 0-1-.33-1.1A4.21 4.21 0 0 0 4.3 8.5h-.2.02Zm4.71-2.77h1.26l-.36 1.73h1.13c.5-.02.98.11 1.39.39.3.24.4.7.27 1.38l-.6 3.03h-1.3l.6-2.9a.82.82 0 0 0-.06-.64.77.77 0 0 0-.63-.19H9.5l-.74 3.73H7.51l1.31-6.52.01-.01Zm5.05 1.73h2.45c.72 0 1.24.21 1.56.62.32.41.43.97.32 1.66a3.2 3.2 0 0 1-.87 1.78c-.26.3-.6.5-.98.6a4.5 4.5 0 0 1-1.07.13h-1.1L13.84 14h-1.27l1.31-6.52Zm1.07 1.04-.55 2.73h.24c.5.01.99-.04 1.46-.18.39-.12.65-.57.77-1.32.11-.64 0-1-.32-1.1a4.19 4.19 0 0 0-1.43-.14h-.19"/>
</svg>
